resources/images/road.svg

<svg xmlns="http://www.w3.org/2000/svg" xmlns:xlink="http://www.w3.org/1999/xlink" preserveAspectRatio="none" width="285" height="427" viewBox="0 0 285 427"><defs><path fill="#333" d="M185.2 210.65q1.3-1.95 2.75-3.9h-5.55q-1.55 1.95-2.95 3.9h5.75M1.65 311.85q-.65.7-1.25 1.4l76.35-1.4H1.65m137-35.05q-2.75 5.05-4.35 7.6l9.3 1.15q1.75-3.7 4.2-8.75h-9.15m22.75-39.05q-1.5 2.3-3 4.7h7.15q1.35-2.4 2.8-4.7h-6.95m97.7-123.4h1.25v-.05l-1.25.05m-44.9 56.95h-4.75q-1.4 1.5-2.65 3.25h4.75q1.3-1.75 2.65-3.25m-19.95 19.25h5.15q1.4-2 2.95-4h-5.1q-1.55 2-3 4m47.8-51.7h.6-.6q-2.05 2.35-4.15 4.65-2.35 2.6-4.6 5.2-3 3.3-6.05 6.8-2.85 3.35-5.55 6.65-3.75 4.5-7.5 9.15-1.35 1.5-2.65 3.25-4.7 6-9.2 12-1.55 2-2.95 4-5.9 7.95-11.45 16.2-1.45 1.95-2.75 3.9-8.95 13.35-16.85 27.1-1.45 2.3-2.8 4.7-9.7 16.85-17.75 34.35-2.45 5.05-4.2 8.75-1.7 4.2-4.8 13.4-3.15 9.25-4.45 12.9H267.7q-17.9-50.7-12.85-104.05 4.1-43.9 29.8-93.5h-19.4l-1.9.3q-2.4 2.85-4.8 5.6-.95 1.2-1.85 2.15-2.3 2.65-4.55 5.2-1.35 1.35-2.65 2.95h1.1-1.1q-1.05 1.2-2.2 2.4-.05.25-.2.25-1.2 1.45-2.4 2.85h.6-.6q-1.35 1.5-2.65 2.85m-13.1 9.4q2.1-2.4 4.15-4.8 1.4-1.55 2.8-3.05 11.8-13.05 24.45-26.05h-1.25l-19 .05h-.9q-40.85 22.4-62.95 38.3-22.05 15.75-35.15 26.15-13.1 10.4-28.05 22.05-15.1 11.55-45.25 40.4-29.55 28.45-66.15 70.55h75.1l10.15-.05 30.45-.6q6.6-9.3 9.8-14.95 3.15-5.8 7.15-11.85 1.6-2.55 4.35-7.6 9.15-17.3 19.75-34.35 1.5-2.4 3-4.7 8.55-13.7 18.05-27.1 1.4-1.95 2.95-3.9 5.65-8.15 11.85-16.2 1.45-2 3-4 4.6-6 9.55-12 1.25-1.75 2.65-3.25 3.75-4.65 7.55-9.15 2.8-3.3 5.55-6.65 3.1-3.55 6.4-7.25z" id="a"/><path id="b" stroke="#333" stroke-width="1" stroke-linejoin="round" stroke-linecap="round" fill="none" d="M242.65 138.85h-4.45m11.3-8.35h1.1m7.95-10.3l-2.1-.05m.25 2.2l-3-.2m-1.55 5.4l-3.8-.15m-1.05 5.5q-.05.25-.2.25m-2.4 2.85h.6m1.8-2.85h-3.2m2.3-2.65h3.3m1.55-5.4h2.65M240.95 136h3.75"/><path id="c" stroke="#333" stroke-width="2" stroke-linejoin="round" stroke-linecap="round" fill="none" d="M233.1 143.45q-2.05 2.4-4.15 4.8l4.35.45q2.25-2.6 4.6-5.2l-4.8-.05q1.4-1.55 2.8-3.05 11.8-13.05 24.45-26.05m-143 196.85q6.6-9.3 9.8-14.95 3.15-5.8 7.15-11.85 1.6-2.55 4.35-7.6 9.15-17.3 19.75-34.35 1.5-2.4 3-4.7 8.55-13.7 18.05-27.1 1.4-1.95 2.95-3.9 5.65-8.15 11.85-16.2 1.45-2 3-4 4.6-6 9.55-12 1.25-1.75 2.65-3.25 3.75-4.65 7.55-9.15 2.8-3.3 5.55-6.65 3.1-3.55 6.4-7.25m8.95-4.75q2.1-2.3 4.15-4.65m-59.65 67.9h5.55q5.55-8.25 11.45-16.2h-5.15m3-4h5.1q4.5-6 9.2-12h-4.75m-4.45 12q-1.55 2-2.95 4m33.9-41.85q-3 3.3-6.05 6.8-2.85 3.35-5.55 6.65-3.75 4.5-7.5 9.15-1.35 1.5-2.65 3.25m-2.1-3.25h4.75m7.5-9.15H217m5.55-6.65h4.7m36.1-40.9q-2.4 2.85-4.8 5.6-.95 1.2-1.85 2.15-2.3 2.65-4.55 5.2-1.35 1.35-2.65 2.95m10.85-16.2v.05M244.7 136q1.2-1.4 2.4-2.85m2.4-2.65q-1.05 1.2-2.2 2.4m-5.25 5.95q1.3-1.35 2.65-2.85m-96.9 140.8q-2.45 5.05-4.2 8.75-1.7 4.2-4.8 13.4-3.15 9.25-4.45 12.9m9.25-26.3l-9.3-1.15m13.5-7.6h-9.15m46.55-66.15q-8.95 13.35-16.85 27.1-1.45 2.3-2.8 4.7-9.7 16.85-17.75 34.35m40.15-70.05q-1.45 1.95-2.75 3.9h-5.75m-18.05 27.1h6.95m-9.95 4.7h7.15"/><path id="d" stroke="#000" stroke-width="2" stroke-linejoin="round" stroke-linecap="round" fill="none" d="M260.35 114.35h-1.25l-19 .05m-.9 0q-40.85 22.4-62.95 38.3-22.05 15.75-35.15 26.15-13.1 10.4-28.05 22.05-15.1 11.55-45.25 40.4-29.55 28.45-66.15 70.55h75.1l10.15-.05m173.45-197.45l4.9-.05h19.4q-25.7 49.6-29.8 93.5-5.05 53.35 12.85 104.05m-.85 0H121.5l-34.6-.05M.4 313.25q.6-.7 1.25-1.4"/></defs><g><use xlink:href="#a"/><use xlink:href="#b"/><use xlink:href="#c"/><use xlink:href="#d"/></g></svg>

<svg xmlns="http://www.w3.org/2000/svg" version="1.1" xmlns:xlink="http://www.w3.org/1999/xlink" preserveAspectRatio="none" x="0px" y="0px" width="285px" height="427px" viewBox="0 0 285 427">
<defs>
<g id="Layer0_0_FILL">
<path fill="#333333" stroke="none" d="
M 185.2 210.65
Q 186.5 208.7 187.95 206.75
L 182.4 206.75
Q 180.85 208.7 179.45 210.65
L 185.2 210.65
M 1.65 311.85
Q 1 312.55 0.4 313.25
L 76.75 311.85 1.65 311.85
M 138.65 276.8
Q 135.9 281.85 134.3 284.4
L 143.6 285.55
Q 145.35 281.85 147.8 276.8
L 138.65 276.8
M 161.4 237.75
Q 159.9 240.05 158.4 242.45
L 165.55 242.45
Q 166.9 240.05 168.35 237.75
L 161.4 237.75
M 259.1 114.35
L 260.35 114.35 260.35 114.3 259.1 114.35
M 214.2 171.3
L 209.45 171.3
Q 208.05 172.8 206.8 174.55
L 211.55 174.55
Q 212.85 172.8 214.2 171.3
M 194.25 190.55
L 199.4 190.55
Q 200.8 188.55 202.35 186.55
L 197.25 186.55
Q 195.7 188.55 194.25 190.55
M 242.05 138.85
L 242.65 138.85 242.05 138.85
Q 240 141.2 237.9 143.5 235.55 146.1 233.3 148.7 230.3 152 227.25 155.5 224.4 158.85 221.7 162.15 217.95 166.65 214.2 171.3 212.85 172.8 211.55 174.55 206.85 180.55 202.35 186.55 200.8 188.55 199.4 190.55 193.5 198.5 187.95 206.75 186.5 208.7 185.2 210.65 176.25 224 168.35 237.75 166.9 240.05 165.55 242.45 155.85 259.3 147.8 276.8 145.35 281.85 143.6 285.55 141.9 289.75 138.8 298.95 135.65 308.2 134.35 311.85
L 266.85 311.85 267.7 311.85
Q 249.8 261.15 254.85 207.8 258.95 163.9 284.65 114.3
L 265.25 114.3 263.35 114.6
Q 260.95 117.45 258.55 120.2 257.6 121.4 256.7 122.35 254.4 125 252.15 127.55 250.8 128.9 249.5 130.5
L 250.6 130.5 249.5 130.5
Q 248.45 131.7 247.3 132.9 247.25 133.15 247.1 133.15 245.9 134.6 244.7 136
L 245.3 136 244.7 136
Q 243.35 137.5 242.05 138.85
M 228.95 148.25
Q 231.05 145.85 233.1 143.45 234.5 141.9 235.9 140.4 247.7 127.35 260.35 114.35
L 259.1 114.35 240.1 114.4 239.2 114.4
Q 198.35 136.8 176.25 152.7 154.2 168.45 141.1 178.85 128 189.25 113.05 200.9 97.95 212.45 67.8 241.3 38.25 269.75 1.65 311.85
L 76.75 311.85 86.9 311.8 117.35 311.2
Q 123.95 301.9 127.15 296.25 130.3 290.45 134.3 284.4 135.9 281.85 138.65 276.8 147.8 259.5 158.4 242.45 159.9 240.05 161.4 237.75 169.95 224.05 179.45 210.65 180.85 208.7 182.4 206.75 188.05 198.6 194.25 190.55 195.7 188.55 197.25 186.55 201.85 180.55 206.8 174.55 208.05 172.8 209.45 171.3 213.2 166.65 217 162.15 219.8 158.85 222.55 155.5 225.65 151.95 228.95 148.25 Z"/>
</g>

<path id="Layer0_0_1_STROKES" stroke="#333333" stroke-width="1" stroke-linejoin="round" stroke-linecap="round" fill="none" d="
M 242.65 138.85
L 242.05 138.85 238.2 138.85
M 249.5 130.5
L 250.6 130.5
M 258.55 120.2
L 256.45 120.15
M 256.7 122.35
L 253.7 122.15
M 252.15 127.55
L 248.35 127.4
M 247.3 132.9
Q 247.25 133.15 247.1 133.15
M 244.7 136
L 245.3 136
M 247.1 133.15
L 243.9 133.15
M 246.2 130.5
L 249.5 130.5
M 251.05 125.1
L 253.7 125.1
M 240.95 136
L 244.7 136"/>

<path id="Layer0_0_2_STROKES" stroke="#333333" stroke-width="2" stroke-linejoin="round" stroke-linecap="round" fill="none" d="
M 233.1 143.45
Q 231.05 145.85 228.95 148.25
L 233.3 148.7
Q 235.55 146.1 237.9 143.5
L 233.1 143.45
Q 234.5 141.9 235.9 140.4 247.7 127.35 260.35 114.35
M 117.35 311.2
Q 123.95 301.9 127.15 296.25 130.3 290.45 134.3 284.4 135.9 281.85 138.65 276.8 147.8 259.5 158.4 242.45 159.9 240.05 161.4 237.75 169.95 224.05 179.45 210.65 180.85 208.7 182.4 206.75 188.05 198.6 194.25 190.55 195.7 188.55 197.25 186.55 201.85 180.55 206.8 174.55 208.05 172.8 209.45 171.3 213.2 166.65 217 162.15 219.8 158.85 222.55 155.5 225.65 151.95 228.95 148.25
M 237.9 143.5
Q 240 141.2 242.05 138.85
M 182.4 206.75
L 187.95 206.75
Q 193.5 198.5 199.4 190.55
L 194.25 190.55
M 197.25 186.55
L 202.35 186.55
Q 206.85 180.55 211.55 174.55
L 206.8 174.55
M 202.35 186.55
Q 200.8 188.55 199.4 190.55
M 233.3 148.7
Q 230.3 152 227.25 155.5 224.4 158.85 221.7 162.15 217.95 166.65 214.2 171.3 212.85 172.8 211.55 174.55
M 209.45 171.3
L 214.2 171.3
M 221.7 162.15
L 217 162.15
M 222.55 155.5
L 227.25 155.5
M 263.35 114.6
Q 260.95 117.45 258.55 120.2 257.6 121.4 256.7 122.35 254.4 125 252.15 127.55 250.8 128.9 249.5 130.5
M 260.35 114.3
L 260.35 114.35
M 244.7 136
Q 245.9 134.6 247.1 133.15
M 249.5 130.5
Q 248.45 131.7 247.3 132.9
M 242.05 138.85
Q 243.35 137.5 244.7 136
M 147.8 276.8
Q 145.35 281.85 143.6 285.55 141.9 289.75 138.8 298.95 135.65 308.2 134.35 311.85
M 143.6 285.55
L 134.3 284.4
M 147.8 276.8
L 138.65 276.8
M 185.2 210.65
Q 176.25 224 168.35 237.75 166.9 240.05 165.55 242.45 155.85 259.3 147.8 276.8
M 187.95 206.75
Q 186.5 208.7 185.2 210.65
L 179.45 210.65
M 161.4 237.75
L 168.35 237.75
M 158.4 242.45
L 165.55 242.45"/>

<path id="Layer0_0_3_STROKES" stroke="#000000" stroke-width="2" stroke-linejoin="round" stroke-linecap="round" fill="none" d="
M 260.35 114.35
L 259.1 114.35 240.1 114.4
M 239.2 114.4
Q 198.35 136.8 176.25 152.7 154.2 168.45 141.1 178.85 128 189.25 113.05 200.9 97.95 212.45 67.8 241.3 38.25 269.75 1.65 311.85
L 76.75 311.85 86.9 311.8
M 260.35 114.35
L 265.25 114.3 284.65 114.3
Q 258.95 163.9 254.85 207.8 249.8 261.15 267.7 311.85
M 266.85 311.85
L 134.35 311.85 131.95 311.85 121.5 311.85 86.9 311.8
M 0.4 313.25
Q 1 312.55 1.65 311.85"/>
</defs>

<g transform="matrix( 1, 0, 0, 1, 0,0) ">
<use xlink:href="#Layer0_0_FILL"/>

<use xlink:href="#Layer0_0_1_STROKES"/>

<use xlink:href="#Layer0_0_2_STROKES"/>

<use xlink:href="#Layer0_0_3_STROKES"/>
</g>
</svg>
